!!!COM: Dunstable, John
!!!OTL: Regina celi letare
!!!ONM: No. 38
!!!YOR: from: "Musica Britannica" Vol. 8, edited by Manfred F. Bukofzer,
!!!YOR: 2nd rev. ed. (prepared by Margaret Bent, Ian Bent & Brian Trowell), pp.101-103
!!!YOO: Royal Musical Association (London)
!!!YOY: 1970
**kern	**kern	**kern
*ICvox	*ICvox	*ICvox
! tenor	! contratenor	! discantus
*M3/4	*M3/4	*M3/4
=1	=1	=1
*>A1	*>A1	*>A1
!! Section 'A1'; (O) mensuration.
4B-	2.r	2r
8c	.	.
8B-	.	.
4G	.	4b-
=2	=2	=2
2F	2f	4a
.	.	4.cc
[4B-	[4d	.
.	.	8b-
=3	=3	=3
4B-]	4d]	4g
2c	2e	2a
=4	=4	=4
2B-	2.d	2.b-
[4d	.	.
=5	=5	=5
4d]	4f	4.a
2c	4e	.
.	.	8b-
.	4c	4cc
=6	=6	=6
4F	4f	4cc
8G	8e	8b-
8F	4f	8.a
4A	.	.
.	.	16g
.	8c	8f
=7	=7	=7
8B-	8d	8g
4c	2c	8.a
.	.	16f
8B-	.	4f
4G	.	.
.	8B-	8e
=8	=8	=8
2.F	2c	4f
.	.	4r
.	[4F	4a
=9	=9	=9
2c	2.F]	4a
.	.	4cc
4d	.	8b-
.	.	8a
=10	=10	=10
4c	4c	8a
.	.	16g
.	.	16a
2B-	2d	8b-
.	.	4g
.	.	8f
=11	=11	=11
4A	8e	4a
.	8c	.
8B-	8d	8g
8c	8e	4cc
[4d	4f	.
.	.	8b-
=12	=12	=12
8d]	8d	4a
4c	4e	.
.	.	8g
8B-	4d	8.g
4A	.	.
.	.	16e
.	8c	8f#x
=13	=13	=13
2.G	2d	4.g
.	.	8f
.	[4B-	4d
=14	=14	=14
2.B-	4B-]	8r
.	.	4f
.	4d	.
.	.	8g
.	4f	4b-
=15	=15	=15
8F	8d	8a
8E	8e	8.g
8F	8c	.
.	.	16f
8A	4c	4f
4G	.	.
.	8B-	8e
=16	=16	=16
2.F	2.c	2.f
=17	=17	=17
*>A2	*>A2	*>A2
!! Section 'A2'; (O) mensuration.
4.d	4.f	4b-
.	.	8a
8e	8g	4cc
4f	8f	.
.	8d	8dd
=18	=18	=18
8g	8c	8ee-x
8.f	2f	8dd
.	.	8cc
16e-x	.	.
8d	.	4b-
4c	.	.
.	8e	8a
=19	=19	=19
8B-	8f	4b-
16A	8g	.
16B-	.	.
8c	8a	4r
8B-	4f	.
4G	.	4b-
.	8e	.
=20	=20	=20
2.F	4f	8a
.	.	4cc
.	8c	.
.	8d	8b-
.	4c	8a
.	.	8f
=21	=21	=21
2B-	4d	8g
.	.	8f
.	4B-	8r
.	.	4b-
4d	8G	.
.	8d	[8a
=22	=22	=22
4c	8e	16a]
.	.	16g
.	8c	4g
8B-	4d	.
8d	.	8f
4c	4r	8.e
.	.	16d
=23	=23	=23
8B-	4r	8d
8c	.	4c
8A	8c	.
8F	8A	8f
8G	8G	8e
[8A	[8F	8f
=24	=24	=24
8A]	8F]	8a
8B-	8G	4g
8c	4A	.
8A	.	8.f
4G	4B-	.
.	.	16d
.	.	8e
=25	=25	=25
[2.F	[2.c	[2.f
=25a	=25a	=25a
2.F]	2.c]	2.f]
!! Long note problem: bar numbers one out from here to next error report.
=26	=26	=26
*>B1	*>B1	*>B1
!! Section 'B1'; (O) mensuration.
2f	2f	4f
.	.	4a
4g	4e	4b-
=27	=27	=27
4f	4a	8cc
.	.	4dd
4e	4g	.
.	.	8cc
4d	4f	8a
.	.	8bnx
=28	=28	=28
2.c	[2.g	2.cc
=29	=29	=29
2.e	2.g]	2r
.	.	4cc
=30	=30	=30
2f	2a	4a
.	.	2dd
4g	4g	.
=31	=31	=31
4e	2g	2cc
2d	.	.
.	4f	4bnx
=32	=32	=32
2.c	2g	4.cc
.	.	8a
.	4e	8b-
.	.	8a
=33	=33	=33
2.d	2d	2f
.	4f	[4a
=34	=34	=34
2c	2e	4a]
.	.	4cc
4d	4d	8b-
.	.	8a
=35	=35	=35
8A	8c	8f
8B-	4G	8.g
8G	.	.
.	.	16f
8A	8c	4f
8B-	8d	.
8c	8A	8e
=36	=36	=36
4d	4B-	8f
.	.	8d
8B-	4G	8r
8G	.	4g
4A	4c	.
.	.	8f#x
=37	=37	=37
4G	2d	8g
.	.	8a
4d	.	8b-
.	.	16a
.	.	16b-
8e	4c	4cc
8c	.	.
=38	=38	=38
4d	4f	8b-
.	.	4a
4c	8e	.
.	8c	8f
4B-	4d	4g
=39	=39	=39
2.A	2.e	2.a
=40	=40	=40
2.d	2.f	2r
.	.	[4b-
=41	=41	=41
8B-	8d	8b-]
8c	8e	8a
2d	4d	8f
.	.	8g
.	4r	8f
.	.	[8d
=42	=42	=42
4G	2B-	8d]
.	.	4g
2B-	.	.
.	.	8f
.	[4d	8g
.	.	[8b-
=43	=43	=43
4.d	4d]	8b-]
.	.	8a
.	8r	8f
8e	8c	8g
4f	4F	8f
.	.	[8a
=44	=44	=44
4.c	4r	8a]
.	.	8g
.	4e	8.cc
8e	.	.
.	.	16b-
4d	8f	8b-
.	[8a	16a
.	.	16b-
=45	=45	=45
2.c	8a]	4.cc
.	8g	.
.	8e	.
.	4c	8b-
.	.	8a
.	[8e	8g
=46	=46	=46
8A	8e]	4f
4B-	8d	.
.	8f	4r
8c	8e	.
4d	8d	4f
.	8B-	.
=47	=47	=47
4A	4c	8e
.	.	8f
2G	2B-	8g
.	.	16f
.	.	16g
.	.	8d
.	.	8e
=48	=48	=48
2.F	2c	2.f
.	[4F	.
=49	=49	=49
2f	2.F]	4.a
.	.	8b-
4c	.	8a
.	.	[8cc
=50	=50	=50
2.d	2f	8cc]
.	.	8a
.	.	8a
.	.	8b-
.	[4d	8.a
.	.	16f
=51	=51	=51
2B-	2.d]	4f
.	.	4.b-
4f	.	8a
=52	=52	=52
2g	2G	4g
.	.	2dd
4f	4d	.
=53	=53	=53
4e	4e	2cc
2d	2f	.
.	.	8bnx
.	.	8a
=54	=54	=54
2c	4g	2cc
.	8e	.
.	4c	.
4A	.	4r
.	[8f	.
=55	=55	=55
8F	8f]	8a
8G	8e	8b-
4F	4f	4cc
4A	4c	8b-
.	.	[8a
=56	=56	=56
4c	4e	8a]
.	.	8.g
8B-	8d	.
.	.	16f
8A	4c	4f
4G	.	.
.	8Bnx	8e
=57	=57	=57
2.F	2c	[2.f
.	[4d	.
=58	=58	=58
2.B-	2.d]	4f]
.	.	2g
=59	=59	=59
2A	2e	4a
.	.	4cc
4d	4f	8b-
.	.	[8a
=60	=60	=60
8c	8e	16a]
.	.	16g
4G	8d	4g
.	8e	.
8A	8c	8f
4B-	8B-	8d
.	8G	8e
=61	=61	=61
2.c	4A	2c
.	4c	.
.	4r	4e
=62	=62	=62
2.A	2.c	8f
.	.	8g
.	.	8a
.	.	8e
.	.	8f
.	.	[8g
=63	=63	=63
4G	4d	8g]
.	.	8d
8A	8c	8f
4B-	4B-	8g
.	.	8b-
8F	8A	[8a
=64	=64	=64
8A	8c	16a]
.	.	16f
4B-	4d	8g
.	.	4f
8A	8c	.
4G	4B-	8d
.	.	8e
=65	=65	=65
2.F	2c	2.f
.	4A	.
=66	=66	=66
*>B2	*>B2	*>B2
!! Section 'B2'; (O) mensuration.
[2.d	[2.G	2r
.	.	4b-
=67	=67	=67
2d]	2G]	4.b-
.	.	8a
4B-	4G	8g
.	.	8f
=68	=68	=68
4A	4c	4f
4G	2d	8g
.	.	4b-
4B-	.	.
.	.	8a
=69	=69	=69
8c	8e	8.g
4d	2d	.
.	.	16f
.	.	8d
8c	.	4g
4A	.	.
.	8c	8f#x
=70	=70	=70
2.G	2.d	2.g
=71	=71	=71
2c	4e	2a
.	8d	.
.	4c	.
4d	.	4b-
.	8B-	.
=72	=72	=72
2c	4A	4cc
.	4e	8a
.	.	8a
4B-	8d	8b-
.	8B-	8a
=73	=73	=73
4A	4c	4f
4F	8d	4r
.	8f	.
4G	8e	4b-
.	16d	.
.	16e	.
=74	=74	=74
2.F	4f	8a
.	.	4cc
.	8c	.
.	4d	8b-
.	.	8.a
.	8c	.
.	.	16g
=75	=75	=75
2.B-	8B-	8.g
.	4G	.
.	.	16f
.	.	8d
.	8c	8e
.	4d	8f
.	.	8g
=76	=76	=76
[2.A	[2.c	4.a
.	.	8g
.	.	8f
.	.	8e
=77	=77	=77
2.A]	2.c]	4f
.	.	8e
.	.	4c
.	.	[8e
=78	=78	=78
4G	4B-	8e]
.	.	4g
4.B-	4r	.
.	.	8e
.	[4d	8f
8c	.	8e
=79	=79	=79
4A	8d]	8c
.	4c	2f
4F	.	.
.	4A	.
4G	.	.
.	8Bnx	8e
=80	=80	=80
[2.F	[2.c	[2.f
=80a	=80a	=80a
2.F]	2.c]	2.f]
!! End of section B2.
=81	=81	=81
*>C1	*>C1	*>C1
!! Section 'C1'; (C/) mensuration.
*M2/2	*M2/2	*M2/2
1d	1G	1b-
=82	=82	=82
2c	1A	1cc
2e	.	.
=83	=83	=83
4f	2d	2dd
2d	.	.
.	4f	4a
4e	4g	[4cc
=84	=84	=84
4f	4a	4cc]
2g	4g	4b-
.	2e	4g
4e	.	4cc
=85	=85	=85
4f	4d	4dd
4e	4e	4.cc
2d	2f	.
.	.	8a
.	.	4bnx
=86	=86	=86
1c	4g	2cc
.	4.e	.
.	.	2r
.	8c	.
.	4e	.
=87	=87	=87
1F	2f	2cc
.	4e	4.cc
.	[4c	.
.	.	8b-
=88	=88	=88
2c	4c]	8a
.	.	8g
.	4e	4a
4d	2d	4f
4B-	.	4g
=89	=89	=89
4A	2c	2a
2F	.	.
.	4f	4cc
4G	[4e	4b-
=90	=90	=90
2A	4e]	4a
.	4c	4f
4B-	4d	8g
.	.	4b-
[4c	4e	.
.	.	8a
=91	=91	=91
4c]	2c	8g
.	.	16f
.	.	16g
4A	.	8.a
.	.	16f
2G	2Bnx	8g
.	.	4e
.	.	8d
=92	=92	=92
2F	4c	2f
.	4.A	.
2A	.	2r
.	8F	.
.	4A	.
=93	=93	=93
*>C2	*>C2	*>C2
!! Section 'C2'; (C/) mensuration.
4B-	4G	4d
4c	2r	4e
2d	.	2f
.	[4B-	.
=94	=94	=94
2B-	4B-]	4g
.	4A	4.b-
[2f	[2F	.
.	.	8a
.	.	4a
=95	=95	=95
4f]	2F]	4f
2c	.	8a
.	.	8b-
.	4A	4cc
4Bnx	4G	[4dd
=96	=96	=96
4c	4F	8dd]
.	.	8cc
4e	2r	4.cc
2d	.	.
.	.	8a
.	4f	4bnx
=97	=97	=97
2.c	4g	4.cc
.	2e	.
.	.	8b-
.	.	8a
.	.	8g
4A	4c	4a
=98	=98	=98
4B-	4d	4g
4c	4c	8g
.	.	8e
2A	4r	4f
.	4c	8e
.	.	8f
=99	=99	=99
4G	4d	4g
4A	4c	4r
2B-	4B-	4d
.	4G	4g
=100	=100	=100
4c	4F	8a
.	.	8f
4A	4c	8f
.	.	16e
.	.	16f
2G	2Bnx	8g
.	.	4e
.	.	8d
=101	=101	=101
1F	2c	2f
.	4d	2r
.	4c	.
=102	=102	=102
*>D1	*>D1	*>D1
!! Section 'D1'; (C/) mensuration.
[1F	4.f	2a
.	8e	.
.	4f	[2cc
.	4c	.
=103	=103	=103
1F]	4.f	4cc]
.	.	4dd
.	8e	.
.	8d	4cc
.	8c	.
.	[4f	[4a
=104	=104	=104
1A	4f]	4a]
.	4e	4g
.	2c	4e
.	.	4f
=105	=105	=105
2G	1d	1g
2B-	.	.
=106	=106	=106
2A	1e	2.a
[2c	.	.
.	.	[4g
=107	=107	=107
2c]	2c	4g]
.	.	4a
2d	2G	2b-
=108	=108	=108
1c	4A	4.cc
.	2F	.
.	.	8b-
.	.	8a
.	.	8g
.	4c	4a
=109	=109	=109
4G	4d	4.g
4A	4c	.
.	.	8f
2B-	4B-	4d
.	4G	4g
=110	=110	=110
1A	2F	4.a
.	.	8g
.	2c	8f
.	.	8e
.	.	4f
=111	=111	=111
1G	2d	2.g
.	4e	.
.	[4g	[4d
=112	=112	=112
2B-	8g]	4d]
.	8f	.
.	4d	4f
2c	4c	4e
.	[4A	4c
=113	=113	=113
4A	4A]	8f
.	.	8g
4F	2c	4.f
2G	.	.
.	.	8d
.	4Bnx	4e
=114	=114	=114
1F	1c	1f
=115	=115	=115
*>D2	*>D2	*>D2
!! Section 'D2'; (C/) mensuration.
2F	2c	1f
4A	4c	.
4B-	4d	.
=116	=116	=116
4c	4e	2a
2d	4d	.
.	4f	4b-
4e	4g	4cc
=117	=117	=117
4f	4a	4.dd
4e	2g	.
.	.	8cc
4c	.	2cc
[4d	4f	.
=118	=118	=118
4d]	4d	4b-
4c	2e	4.a
2B-	.	.
.	.	8f
.	4d	4g
=119	=119	=119
2A	2e	2a
[2F	2f	4r
.	.	[4cc
=120	=120	=120
4F]	4d	4cc]
4G	4e	4b-
4F	2f	4.a
[4B-	.	.
.	.	8f
=121	=121	=121
4B-]	4d	4g
4A	4c	2f
2G	4d	.
.	4B-	4e
=122	=122	=122
2F	4c	2f
.	4d	.
2A	4c	2r
.	[4e	.
=123	=123	=123
4c	4e]	4a
4d	4f	4b-
2c	2g	2cc
=124	=124	=124
2G	2e	4b-
.	.	2dd
4B-	4d	.
4c	4e	4cc
=125	=125	=125
2d	4d	4b-
.	4f	4.a
4c	4e	.
.	.	8g
4e	4c	[4cc
=126	=126	=126
2d	2f	4cc]
.	.	4bnx
2c	4g	4.cc
.	4e	.
.	.	8a
=127	=127	=127
4d	2d	4.b-
4B-	.	.
.	.	8a
2c	2e	8g
.	.	8f
.	.	4g
=128	=128	=128
4F	4f	4a
4A	2c	4.f
2G	.	.
.	.	16e
.	.	16f
.	4Bnx	8e
.	.	8d
=129	=129	=129
2F	2c	2f
4B-	4d	4r
4c	4e	[4g
=130	=130	=130
2d	4d	8g]
.	.	8a
.	4f	4b-
2c	4g	4.cc
.	4e	.
.	.	8b-
=131	=131	=131
4d	2d	8a
.	.	8g
4B-	.	4b-
2c	[2c	4a
.	.	8g
.	.	8f
*M3/2	*M3/2	*M3/2
=132	=132	=132
4A	4c]	4f
4c	4A	4c
4B-	4d	8f
.	.	8g
4A	2c	4.f
2G	.	.
.	.	8d
.	4Bnx	4e
*M2/2	*M2/2	*M2/2
=133	=133	=133
1F	1c	1f
==	==	==
*-	*-	*-
!!!ENC: Mark Laxton
!!!EDD: Mark Laxton
!!!YEC: Mark Laxton, 1987
!!!EMD: Reference records added by D. Huron, 2001
!!!EEV: 1.1
